!!!!SEGMENT: pl-sa--576-a-ix-56--003_anonim--valse.krn
!!!cenid: 18xx:632
!!!COM: Anonim
!!!COM-rismID:
!!!CDT:
!!!CNT:
!!!OTL: Valse
!!!PDT:
!!!AGN: Secular; Waltz
!!!SMS-siglum: PL-SA
!!!SMS-shelfmark: 576/A IX 56
!!!SMS-shelfwork: 003 W
!!!SMS-variant:
!!!SMS-altvar:
!!!NIFC-rismSourceID: 1001109903
!!!NIFC-islandoraID:
!!!URL-pdf-islandora:
!!!URL-scan: https://bc.bdsandomierz.pl/dlibra/publication/1384/edition/1352/content @EN{Scan on Cyfrowa Biblioteka Diecezjalna w Sandomierzu} @PL{Skany w portalu Cyfrowa Biblioteka Diecezjalna w Sandomierzu}
!!!ONB-nifc: Str. 2
!!!AIN: 1 empty 1 piano
!!!key:
**kern	**kern
*part2	*part1
*staff2	*staff1
*Iempty	*Ipiano
*	*I"Piano
*clefF4	*clefG2
*k[b-]	*k[b-]
*F:	*F:
*M3/4	*M3/4
*	*8va
!LO:N:vis=1	!LO:TX:a:t=P:problem=przedtakt zapisany w II-gim systemie [przyjęto zgodnie z RISM]
16.r	32ccc/LLL
.	32ddd/
.	32eee/JJJ
=1	=1
4F\	4fff 4aa\
4c 4A\	4r
4c 4A\	4aa 4ff/
=2	=2
4F\	4ddd 4ff/
4c 4A\	4r
4c 4A\	4ccc\
=3	=3
.	16qqccc/LL
.	16qqddd/
.	16qqeee/JJ
4F\	4fff 4aa\
4c 4A\	4r
4c 4A\	4aa 4ff/
=4	=4
4F\	4ddd 4ff\
4c 4A\	4r
4c 4A\	4ccc\
=5	=5
4c 4C\	4ccc\
4c 4B- 4G\	4r
4c 4B- 4G\	8ccc\L
.	8bb-\J
=6	=6
4c 4C\	4bb-\
4c 4B- 4G\	4r
4c 4B- 4G\	8cc/L
.	8cc/J
=7	=7
4F\	4cc/
4c 4A\	4ff/
4c 4A\	4aa/
!!LO:LB:g=original
=8	=8
4F\	4ddd\
4c 4A\	4r
4c 4A\	4ccc\
=9	=9
.	16qqccc/LL
.	16qqddd/
.	16qqeee/JJ
4F\	4fff 4aa\
4c 4A\	4r
4c 4A\	4aa 4ff/
=10	=10
4F\	4ddd 4ff\
4c 4A\	4r
4c 4A\	4ccc\
=11	=11
.	16qqccc/LL
.	16qqddd/
.	16qqeee/JJ
4F\	4fff 4aa\
4c 4A\	4r
4c 4A\	4aa 4ff/
=12	=12
4F\	4ddd 4ff\
4c 4A\	4r
4c 4A\	4ccc\
=13	=13
4c 4C\	4ccc\
4c 4B- 4G\	4r
4c 4B- 4G\	8bb-\L
.	8bb-\J
=14	=14
4c 4C\	4bb-\
4c 4B- 4G\	4r
4c 4B- 4G\	8cc/L
.	8cc/J
!!LO:LB:g=original
=15	=15
4c 4C\	4cc/
4c 4B- 4G\	4dd/
4c 4B- 4G\	4ee/
*	*X8va
=	=
!	!LO:TX:a:Bi:t=loco:rj
4c 4A 4F\	4f/
4r	4r
=16||	=16||
*	*8va
!	!LO:TUP:a:problem=klamra łukowa
4r	12ccc\L
.	12ddd\
.	12ccc\J
=17	=17
4F\	4aa 4ff/
!LO:SIC:n=2:s=4F:v	!
4c 4F\	4r
!LO:SIC:n=2:s=4F:v	!
!	!LO:TUP:a:problem=klamra łukowa
4c 4F\	12ccc\L
.	12ddd\
.	12ccc\J
=18	=18
4F\	4aa 4ff/
4c 4A\	4r
!	!LO:TUP:a:problem=klamra łukowa
4c 4A\	12ccc\L
.	12ddd\
.	12ccc\J
=19	=19
4F\	4aa 4ff/
4c 4A\	4r
4c 4A\	4fff\
=20	=20
4F\	4aaa\
4c 4A\	4r
!	!LO:TUP:a:problem=klamra łukowa
4c 4A\	12ccc\L
.	12ddd\
.	12ccc\J
=21	=21
!	!LO:TX:a:t=P:problem=przy kluczu błędnie [cc-]
4c 4C\	4bb- 4gg/
4c 4B- 4G\	4r
!	!LO:TUP:a:problem=klamra łukowa
4c 4B- 4G\	12ccc\L
.	12ddd\
.	12ccc\J
!!LO:LB:g=original
=22	=22
4c 4C\	4bb- 4gg/
4c 4B- 4G\	4r
!	!LO:TUP:a:problem=klamra łukowa
4c 4B- 4G\	12ccc\L
.	12ddd\
.	12ccc\J
=23	=23
4c 4C\	4bb- 4gg/
4c 4B- 4G\	4r
4c 4B- 4G\	4ggg\
=24	=24
4c 4C\	4bbb-\
4c 4B- 4G\	4r
!	!LO:TUP:a:problem=klamra łukowa
4c 4B- 4G\	12cccc\L
.	12dddd\
.	12cccc\J
=25	=25
4F\	4bbbn\
4c 4A\	4r
!	!LO:TUP:a:problem=klamra łukowa
4c 4A\	12cccc\L
.	12dddd\
.	12cccc\J
=26	=26
4F\	4ffff\
4c 4A\	4r
!	!LO:TUP:a:problem=klamra łukowa
4c 4A\	12aaa\L
.	12bbb-\
.	12aaa\J
=27	=27
*	*Xtuplet
4F\	4ggg#X\
4c 4A\	4r
4c 4A\	12aaa\L
.	12bbb-\
.	12aaa\J
*	*tuplet
=28	=28
4F\	4cccc\
4c 4A\	4r
4c 4A\	8bbb-\L
!	!LO:TX:a:t=P:problem=W źródle różne kropki, które raczej nie mają wpływu na zapis muzyczny
.	8bbb-\J
=29	=29
4c 4C\	4bbb-\
*	*X8va
!LO:TX:a:t=P:problem=partia urywa się w takcie 29	!LO:TX:a:t=P:problem=partia urywa się w takcie 29
4c 4B- 4G\	4r
4ryy	4ryy
==	==
*-	*-
!!!system-decoration: {(s1,s2)}
!!!ENC: Andrzej Kubiczek
!!!END: 2020-06-19
